X:1
T:Dark Isle Harmony 1
M:3/4
Z:SG
K:D
E2|B4 BG|VB4 cB|G4 DG|E4 EA|A2F2GF|d2A2A2|d2B2fd|c4 E2|
G2B2 BG|D2F2 cA|D2 G2 DG|E4 EA|G2B2 dB|A2c2BA|G2D2 GD|F4 AB||
f2d2A2|d2A2F2|DG BG FG|E4 GA|d2 A2 F2|F2 A2 D2|GB dB FA|A4 E2|
G2 B2 E2|D2 F2 D2|DG D2 D2|E4 EA|d2 B2 A2|A2 c2 BA|G2 D2 GD| F4|]
